build/assets/images/proyectos/logos/fichas/logo-helvetia-g.svg

<svg width="200" height="87" viewBox="0 0 200 87" fill="none" xmlns="http://www.w3.org/2000/svg">
<g clip-path="url(#clip0)">
<g clip-path="url(#clip1)">
<path d="M7.27279 11.3735V23.3937H7.3738C8.98996 21.1715 11.0102 20.1614 13.7374 20.1614C18.7879 20.1614 21.2122 23.5958 21.2122 28.6463V41.0705H14.1415V30.6665C14.1415 28.3432 13.8384 25.818 10.9092 25.818C8.08087 25.818 7.17178 28.2422 7.17178 30.6665V41.0705H0.101074V11.3735H7.27279Z" fill="white"/>
<path d="M38.6868 27.9391C38.3838 26.02 36.5656 24.7068 34.6464 24.7068C32.6262 24.7068 30.909 25.8179 30.404 27.9391H38.6868ZM45.3535 32.0806H30.404C30.404 35.0099 31.9191 36.626 34.8484 36.626C36.3636 36.626 37.4747 36.121 38.2828 34.8078H45.1514C44.0403 39.5553 39.4949 41.7775 34.9494 41.7775C28.2827 41.7775 23.3333 37.9391 23.3333 30.9695C23.3333 24.2018 27.8787 20.1614 34.4444 20.1614C41.4141 20.1614 45.3535 24.5048 45.3535 31.3735V32.0806Z" fill="white"/>
<path d="M47.3738 41.0705H54.4445V11.3735H47.3738V41.0705" fill="white"/>
<path d="M67.9799 31.1714L72.7274 20.7673H80.7072L70.3031 41.0704H65.6567L55.1516 20.7673H63.1314L67.9799 31.1714Z" fill="white"/>
<path d="M94.3435 27.9391C94.0404 26.02 92.2223 24.7068 90.3031 24.7068C88.2829 24.7068 86.5657 25.8179 86.0606 27.9391H94.3435ZM100.909 32.0806H85.9596C85.9596 35.0099 87.4748 36.626 90.4041 36.626C91.9192 36.626 93.0303 36.121 93.8384 34.8078H100.707C99.596 39.5553 95.0505 41.7775 90.5051 41.7775C83.8384 41.7775 78.8889 37.9391 78.8889 30.9695C78.8889 24.2018 83.4344 20.1614 90 20.1614C96.9697 20.1614 100.909 24.5048 100.909 31.3735V32.0806Z" fill="white"/>
<path d="M111.414 41.0704H104.344V26.727H102.02V20.7674H104.344V14.7068H111.414V20.7674H115.455V26.727H111.414V41.0704" fill="white"/>
<path d="M123.838 41.0704H116.768V20.7673H123.838V41.0704ZM124.343 14.4037C124.343 16.6259 122.525 18.4441 120.404 18.4441C118.182 18.4441 116.465 16.6259 116.465 14.4037C116.465 12.1815 118.283 10.3633 120.404 10.3633C122.525 10.3633 124.343 12.1815 124.343 14.4037Z" fill="white"/>
<path d="M133.232 30.9695C133.232 33.4947 134.949 35.5149 137.778 35.5149C140.707 35.5149 142.323 33.4947 142.323 30.9695C142.323 28.4442 140.606 26.424 137.778 26.424C134.949 26.323 133.232 28.4442 133.232 30.9695ZM149.293 41.0705H142.222V38.8482H142.121C140.909 40.8684 138.384 41.7775 136.06 41.7775C130.101 41.7775 125.959 36.727 125.959 30.9695C125.959 25.2119 130.101 20.1614 135.959 20.1614C138.283 20.1614 140.707 21.0705 142.121 22.7876V20.7674H149.192V41.0705" fill="white"/>
<path d="M166.364 34.1007L174.343 31.9795L176.061 27.9391L172.525 19.6562L171.717 21.6765L166.364 34.1007Z" fill="white"/>
<path d="M184.242 8.14119L180.909 0.56543L172.828 2.38361L176.061 10.0604L184.242 8.14119Z" fill="white"/>
<path d="M171.919 18.4443L172.02 18.1413L175.253 10.6665L172.02 3.3938L159.394 33.2928L165.152 34.3029L171.919 18.4443Z" fill="white"/>
<path d="M175.253 10.6665L175.051 10.2624L172.121 3.29272L172.02 3.39373L175.253 10.6665Z" fill="white"/>
<path d="M174.545 33.0906L167.98 34.7067L179.697 36.828L178.485 33.7977L174.545 33.0906Z" fill="white"/>
<path d="M165.253 35.4138L163.03 35.0097H163.131L158.889 34.2017L156.263 40.6663L183.535 45.6158L180.303 38.0401L165.253 35.4138Z" fill="white"/>
<path d="M163.232 34.9087L158.889 34.2017L163.131 35.0097L163.232 34.9087Z" fill="white"/>
<path d="M163.131 35.01H163.03L165.253 35.4141L165.151 35.313L163.131 35.01Z" fill="white"/>
<path d="M165.757 35.414L165.454 35.313L165.252 35.414L180.303 38.0402V37.9392L165.757 35.414Z" fill="white"/>
<path d="M165.252 35.414L165.454 35.313H165.151L165.252 35.414Z" fill="white"/>
<path d="M165.152 35.313L163.232 34.9089L163.131 35.0099L165.152 35.313Z" fill="white"/>
<path d="M165.455 35.313L165.758 35.414L165.455 35.313Z" fill="white"/>
<path d="M176.465 11.0706L178.485 15.717L191.919 47.0302L199.899 44.7069L184.646 9.15137L180.606 10.0605L176.465 11.0706Z" fill="white"/>
<path d="M180.606 10.0605L184.646 9.15137L180.606 10.0605Z" fill="white"/>
<path d="M173.131 18.3432L177.172 27.8381V27.9391L181.111 37.0301L182.626 40.6664L184.849 45.8179L190.808 46.929L181.818 25.9189L175.758 12.0806L173.131 18.3432Z" fill="white"/>
<path d="M177.172 27.9392V27.8382L173.131 18.3433L173.03 18.4443L177.172 27.9392Z" fill="white"/>
<path d="M175.758 12.0805V11.9795L173.03 18.2421L173.131 18.3431L175.758 12.0805Z" fill="white"/>
<path d="M173.03 18.4442L173.131 18.3432L173.03 18.2422V18.3432V18.4442Z" fill="white"/>
<path d="M181.111 37.03L182.626 40.6664L181.111 37.03Z" fill="white"/>
<path d="M190.808 46.9291L181.818 25.9189L190.808 46.9291Z" fill="white"/>
</g>
<path d="M49.4841 66.1383H50.5409V57.2494H49.4841V66.1383Z" fill="white"/>
<path d="M52.5895 66.1383H53.5343V63.2665C53.5343 62.6574 53.5343 62.1974 53.8576 61.7996C54.1684 61.4142 54.6532 61.2028 55.2127 61.2028C56.2072 61.2028 56.6921 61.7498 56.6921 62.8687V66.1383H57.6369V62.359C57.6369 61.1034 56.8413 60.3823 55.5483 60.3823C54.6781 60.3823 54.0068 60.718 53.5219 61.439V56.7273H52.5895V66.1383Z" fill="white"/>
<path d="M59.5221 66.1383H60.4669V63.4282C60.4669 61.9736 60.9642 61.2525 61.9712 61.2525C62.1453 61.2525 62.3442 61.2898 62.5555 61.3644L62.8787 60.5066C62.6674 60.432 62.4561 60.3947 62.2323 60.3947C61.3869 60.3947 60.8648 60.7926 60.3675 61.7374V60.5812H59.5221V66.1383Z" fill="white"/>
<path d="M68.8285 63.5027V63.3163C68.8285 61.4763 67.7842 60.3699 66.1557 60.3699C64.5395 60.3699 63.3833 61.5882 63.3833 63.3411C63.3833 65.1562 64.5271 66.3745 66.2178 66.3745C67.3616 66.3745 68.2318 65.8648 68.7912 64.8578L68.0702 64.373C67.6102 65.1811 67.0135 65.5789 66.2675 65.5789C65.1984 65.5789 64.4276 64.7957 64.4276 63.5898V63.5027H68.8285ZM67.8091 62.732H64.4276C64.5271 61.7871 65.2108 61.2028 66.1184 61.2028C67.1253 61.2028 67.747 61.7498 67.8091 62.732Z" fill="white"/>
<path d="M77.2524 61.2028L75.9843 60.6434C75.1762 60.2953 74.7908 59.8477 74.7908 59.2137C74.7908 58.4553 75.3503 57.9208 76.1459 57.9208C76.78 57.9208 77.2648 58.2689 77.6502 58.9402L78.5205 58.3808C78.0853 57.4981 77.2897 57.0381 76.2205 57.0381C74.7411 57.0381 73.7217 57.9829 73.7217 59.2261C73.7217 60.3077 74.2936 61.0785 75.4746 61.5758L76.5562 62.0358C77.4762 62.4336 77.9361 63.0179 77.9361 63.8135C77.9361 64.7832 77.2275 65.467 76.1584 65.467C75.2633 65.467 74.6541 64.9076 74.393 63.826L73.4358 64.2984C73.7714 65.6162 74.7536 66.3621 76.1584 66.3621C77.874 66.3621 79.0053 65.2681 79.0053 63.6395C79.0053 62.5206 78.421 61.7001 77.2524 61.2028Z" fill="white"/>
<path d="M84.5708 64.8205C83.9865 65.2432 83.4519 65.4546 82.8551 65.4546C81.699 65.4546 80.866 64.5595 80.866 63.4406C80.866 62.1228 81.7114 61.3023 82.9297 61.3023C83.4767 61.3023 83.9989 61.4763 84.4713 61.7871V60.7677C83.9616 60.5191 83.3649 60.3823 82.7433 60.3823C81.0774 60.3823 79.8466 61.6006 79.8466 63.4157C79.8466 65.1686 80.9779 66.3745 82.706 66.3745C83.427 66.3745 84.0611 66.2254 84.5708 65.927V64.8205Z" fill="white"/>
<path d="M85.8913 66.1383H86.8361V63.2665C86.8361 62.6574 86.8361 62.1974 87.1593 61.7996C87.4701 61.4142 87.955 61.2028 88.5144 61.2028C89.509 61.2028 89.9938 61.7498 89.9938 62.8687V66.1383H90.9387V62.359C90.9387 61.1034 90.143 60.3823 88.8501 60.3823C87.9799 60.3823 87.3085 60.718 86.8237 61.439V56.7273H85.8913V66.1383Z" fill="white"/>
<path d="M96.2178 60.3823H96.0686L94.3779 64.373L92.8985 60.5812H91.8417L94.3157 66.4864L96.1432 62.2222L97.9707 66.4864L100.445 60.5812H99.3755L97.8837 64.373L96.2178 60.3823Z" fill="white"/>
<path d="M106.38 63.5027V63.3163C106.38 61.4763 105.335 60.3699 103.707 60.3699C102.09 60.3699 100.934 61.5882 100.934 63.3411C100.934 65.1562 102.078 66.3745 103.769 66.3745C104.913 66.3745 105.783 65.8648 106.342 64.8578L105.621 64.373C105.161 65.1811 104.564 65.5789 103.819 65.5789C102.749 65.5789 101.979 64.7957 101.979 63.5898V63.5027H106.38ZM105.36 62.732H101.979C102.078 61.7871 102.762 61.2028 103.669 61.2028C104.676 61.2028 105.298 61.7498 105.36 62.732Z" fill="white"/>
<path d="M107.855 66.1383H108.8V60.5812H107.855V66.1383ZM107.631 57.9083C107.631 58.3062 107.942 58.6045 108.327 58.6045C108.713 58.6045 109.023 58.3062 109.023 57.9208C109.023 57.5354 108.713 57.2121 108.327 57.2121C107.942 57.2121 107.631 57.5229 107.631 57.9083Z" fill="white"/>
<path d="M110.033 66.1383H114.869V65.3054H111.711L114.894 60.5812H110.232V61.4142H113.215L110.033 66.1383Z" fill="white"/>
<path d="M121.13 63.5027V63.3163C121.13 61.4763 120.086 60.3699 118.458 60.3699C116.841 60.3699 115.685 61.5882 115.685 63.3411C115.685 65.1562 116.829 66.3745 118.52 66.3745C119.663 66.3745 120.534 65.8648 121.093 64.8578L120.372 64.373C119.912 65.1811 119.315 65.5789 118.569 65.5789C117.5 65.5789 116.729 64.7957 116.729 63.5898V63.5027H121.13ZM120.111 62.732H116.729C116.829 61.7871 117.513 61.2028 118.42 61.2028C119.427 61.2028 120.049 61.7498 120.111 62.732Z" fill="white"/>
<path d="M122.568 66.1383H123.513V63.4282C123.513 61.9736 124.011 61.2525 125.018 61.2525C125.192 61.2525 125.39 61.2898 125.602 61.3644L125.925 60.5066C125.714 60.432 125.502 60.3947 125.279 60.3947C124.433 60.3947 123.911 60.7926 123.414 61.7374V60.5812H122.568V66.1383Z" fill="white"/>
<path d="M133.217 66.4864L136.959 57.2494H135.815L133.217 64.0498L130.606 57.2494H129.462L133.217 66.4864Z" fill="white"/>
<path d="M142.061 63.5027V63.3163C142.061 61.4763 141.017 60.3699 139.388 60.3699C137.772 60.3699 136.616 61.5882 136.616 63.3411C136.616 65.1562 137.759 66.3745 139.45 66.3745C140.594 66.3745 141.464 65.8648 142.024 64.8578L141.302 64.373C140.843 65.1811 140.246 65.5789 139.5 65.5789C138.431 65.5789 137.66 64.7957 137.66 63.5898V63.5027H142.061ZM141.041 62.732H137.66C137.759 61.7871 138.443 61.2028 139.351 61.2028C140.358 61.2028 140.979 61.7498 141.041 62.732Z" fill="white"/>
<path d="M143.499 66.1383H144.444V63.4282C144.444 61.9736 144.941 61.2525 145.948 61.2525C146.122 61.2525 146.321 61.2898 146.532 61.3644L146.856 60.5066C146.644 60.432 146.433 60.3947 146.209 60.3947C145.364 60.3947 144.842 60.7926 144.344 61.7374V60.5812H143.499V66.1383Z" fill="white"/>
<path d="M147.261 65.2059C147.696 65.9891 148.417 66.3745 149.449 66.3745C150.679 66.3745 151.475 65.641 151.475 64.6092C151.475 63.7017 150.941 63.3038 149.859 62.9557C148.939 62.6574 148.429 62.5828 148.429 61.9985C148.429 61.5136 148.815 61.1655 149.374 61.1655C149.958 61.1655 150.418 61.4515 150.642 61.9612L151.413 61.4888C151.115 60.7801 150.394 60.3823 149.436 60.3823C148.255 60.3823 147.472 61.0909 147.472 62.0606C147.472 63.1546 148.292 63.3909 149.66 63.8633C150.244 64.0622 150.53 64.286 150.53 64.7086C150.53 65.1935 150.12 65.5416 149.486 65.5416C148.852 65.5416 148.38 65.2557 148.069 64.6589L147.261 65.2059Z" fill="white"/>
<path d="M152.957 66.1383H153.902V60.5812H152.957V66.1383ZM152.734 57.9083C152.734 58.3062 153.044 58.6045 153.43 58.6045C153.815 58.6045 154.126 58.3062 154.126 57.9208C154.126 57.5354 153.815 57.2121 153.43 57.2121C153.044 57.2121 152.734 57.5229 152.734 57.9083Z" fill="white"/>
<path d="M160.183 64.8205C159.598 65.2432 159.064 65.4546 158.467 65.4546C157.311 65.4546 156.478 64.5595 156.478 63.4406C156.478 62.1228 157.323 61.3023 158.542 61.3023C159.089 61.3023 159.611 61.4763 160.083 61.7871V60.7677C159.573 60.5191 158.977 60.3823 158.355 60.3823C156.689 60.3823 155.458 61.6006 155.458 63.4157C155.458 65.1686 156.59 66.3745 158.318 66.3745C159.039 66.3745 159.673 66.2254 160.183 65.927V64.8205Z" fill="white"/>
<path d="M161.503 66.1383H162.448V63.2665C162.448 62.6574 162.448 62.1974 162.771 61.7996C163.082 61.4142 163.567 61.2028 164.126 61.2028C165.121 61.2028 165.606 61.7498 165.606 62.8687V66.1383H166.551V62.359C166.551 61.1034 165.755 60.3823 164.462 60.3823C163.592 60.3823 162.92 60.718 162.436 61.439V56.7273H161.503V66.1383Z" fill="white"/>
<path d="M173.384 63.5027V63.3163C173.384 61.4763 172.339 60.3699 170.711 60.3699C169.095 60.3699 167.938 61.5882 167.938 63.3411C167.938 65.1562 169.082 66.3745 170.773 66.3745C171.917 66.3745 172.787 65.8648 173.346 64.8578L172.625 64.373C172.165 65.1811 171.569 65.5789 170.823 65.5789C169.754 65.5789 168.983 64.7957 168.983 63.5898V63.5027H173.384ZM172.364 62.732H168.983C169.082 61.7871 169.766 61.2028 170.674 61.2028C171.681 61.2028 172.302 61.7498 172.364 62.732Z" fill="white"/>
<path d="M174.822 66.1383H175.767V63.4282C175.767 61.9736 176.264 61.2525 177.271 61.2525C177.445 61.2525 177.644 61.2898 177.855 61.3644L178.178 60.5066C177.967 60.432 177.756 60.3947 177.532 60.3947C176.687 60.3947 176.164 60.7926 175.667 61.7374V60.5812H174.822V66.1383Z" fill="white"/>
<path d="M180.038 60.5812H179.093V63.9006C179.093 65.5292 179.976 66.3745 181.592 66.3745C183.258 66.3745 184.128 65.5043 184.128 63.826V60.5812H183.183V63.3163C183.158 64.7832 182.835 65.467 181.617 65.467C180.399 65.467 180.038 64.7832 180.038 63.3163V60.5812Z" fill="white"/>
<path d="M185.967 66.1383H186.911V63.2665C186.911 62.6574 186.911 62.1974 187.235 61.7996C187.545 61.4142 188.03 61.2028 188.59 61.2028C189.584 61.2028 190.069 61.7498 190.069 62.8687V66.1383H191.014V62.359C191.014 61.1034 190.218 60.3823 188.925 60.3823C188.055 60.3823 187.384 60.718 186.911 61.439V60.5812H185.967V66.1383Z" fill="white"/>
<path d="M198.083 60.5812H197.114V61.6131C196.703 60.805 195.995 60.3823 195.075 60.3823C193.521 60.3823 192.464 61.4888 192.464 63.3411C192.464 65.1438 193.533 66.3124 195.124 66.3124C195.982 66.3124 196.703 65.8773 197.138 65.0816V66.014C197.138 66.5237 197.114 66.934 196.902 67.2821C196.616 67.7669 196.069 68.0156 195.311 68.0156C194.242 68.0156 193.657 67.5307 193.657 66.7102V66.6356H192.588C192.626 68.028 193.595 68.8485 195.299 68.8485C196.281 68.8485 197.027 68.5626 197.536 68.0031C198.058 67.4561 198.083 66.8345 198.083 66.0389V60.5812ZM197.138 63.3784C197.138 64.6589 196.442 65.4048 195.323 65.4048C194.142 65.4048 193.471 64.6465 193.471 63.3038C193.471 62.0358 194.142 61.3023 195.286 61.3023C196.355 61.3023 197.138 62.0855 197.138 63.3784Z" fill="white"/>
</g>
<defs>
<clipPath id="clip0">
<rect width="200" height="85.8586" fill="white" transform="translate(0 0.161377)"/>
</clipPath>
<clipPath id="clip1">
<rect width="200" height="47.4747" fill="white" transform="translate(0 0.161377)"/>
</clipPath>
</defs>
</svg>

<svg width="200" height="87" fill="none" xmlns="http://www.w3.org/2000/svg"><g clip-path="url(#clip0)" fill="#fff"><g clip-path="url(#clip1)"><path d="M7.273 11.373v12.02h.1c1.617-2.221 3.637-3.232 6.364-3.232 5.05 0 7.475 3.435 7.475 8.485v12.425h-7.07V30.667c0-2.324-.304-4.849-3.233-4.849-2.828 0-3.737 2.424-3.737 4.848v10.405H.102V11.374h7.17zM38.687 27.94c-.303-1.92-2.121-3.233-4.04-3.233-2.02 0-3.738 1.11-4.243 3.232h8.283zm6.666 4.14H30.404c0 2.93 1.515 4.546 4.444 4.546 1.516 0 2.627-.505 3.435-1.818h6.868c-1.11 4.747-5.656 6.97-10.202 6.97-6.666 0-11.616-3.839-11.616-10.808 0-6.768 4.546-10.809 11.111-10.809 6.97 0 10.91 4.344 10.91 11.212v.708zm2.021 8.99h7.07V11.374h-7.07v29.698m20.606-9.901l4.747-10.404h7.98L70.303 41.07h-4.646L55.152 20.767h7.98l4.848 10.404zm26.364-3.231c-.304-1.92-2.122-3.233-4.04-3.233-2.021 0-3.738 1.11-4.243 3.232h8.282zm6.565 4.14h-14.95c0 2.93 1.516 4.546 4.445 4.546 1.515 0 2.626-.505 3.434-1.818h6.869c-1.111 4.747-5.656 6.97-10.202 6.97-6.667 0-11.616-3.839-11.616-10.808 0-6.768 4.545-10.809 11.111-10.809 6.97 0 10.909 4.344 10.909 11.212v.708zm10.505 8.99h-7.07V26.727h-2.324v-5.96h2.324v-6.06h7.07v6.06h4.041v5.96h-4.041V41.07m12.424 0h-7.07V20.767h7.07V41.07zm.505-26.666c0 2.222-1.818 4.04-3.939 4.04-2.222 0-3.939-1.818-3.939-4.04 0-2.223 1.818-4.04 3.939-4.04s3.939 1.817 3.939 4.04zm8.889 16.566c0 2.525 1.717 4.545 4.546 4.545 2.929 0 4.545-2.02 4.545-4.546 0-2.525-1.717-4.545-4.545-4.545-2.829-.101-4.546 2.02-4.546 4.546zm16.061 10.1h-7.071v-2.222h-.101c-1.212 2.02-3.737 2.93-6.061 2.93-5.959 0-10.101-5.051-10.101-10.808 0-5.758 4.142-10.809 10-10.809 2.324 0 4.748.91 6.162 2.627v-2.02h7.071V41.07m17.172-6.97l7.979-2.12 1.718-4.04-3.536-8.284-.808 2.02-5.353 12.425zm17.878-25.959L180.909.565l-8.081 1.819 3.233 7.676 8.181-1.919zm-12.323 10.303l.101-.303 3.233-7.474-3.233-7.273-12.626 29.899 5.758 1.01 6.767-15.859z"/><path d="M175.253 10.666l-.202-.404-2.93-6.97-.101.102 3.233 7.272zm-.708 22.424l-6.565 1.617 11.717 2.121-1.212-3.03-3.94-.707zm-9.292 2.324l-2.223-.404h.101l-4.242-.808-2.626 6.464 27.272 4.95-3.232-7.576-15.05-2.626z"/><path d="M163.232 34.909l-4.343-.707 4.242.808.101-.101zm-.101.101h-.101l2.223.404-.102-.101-2.02-.303z"/><path d="M165.757 35.414l-.303-.101-.202.101 15.051 2.626v-.1l-14.546-2.526z"/><path d="M165.252 35.414l.202-.101h-.303l.101.101zm-.1-.101l-1.92-.404-.101.1 2.021.304zm.303 0l.303.101-.303-.101zm11.01-24.243l2.02 4.647 13.434 31.313 7.98-2.323L184.646 9.15l-4.04.91-4.141 1.01z"/><path d="M180.606 10.06l4.04-.909-4.04.91zm-7.475 8.283l4.041 9.495v.101l3.939 9.091 1.515 3.636 2.223 5.152 5.959 1.111-8.99-21.01-6.06-13.838-2.627 6.262z"/><path d="M177.172 27.94v-.102l-4.041-9.495-.101.101 4.142 9.495zm-1.414-15.86v-.1l-2.728 6.262.101.101 2.627-6.262z"/><path d="M173.03 18.444l.101-.1-.101-.102v.202zm8.081 18.586l1.515 3.636-1.515-3.636zm9.697 9.9l-8.99-21.011 8.99 21.01z"/></g><path d="M49.484 66.138h1.057V57.25h-1.057v8.89zm3.106 0h.944v-2.872c0-.609 0-1.069.324-1.466.31-.386.795-.597 1.355-.597.994 0 1.48.547 1.48 1.666v3.27h.944v-3.78c0-1.256-.796-1.977-2.089-1.977-.87 0-1.541.336-2.026 1.057v-4.712h-.932v9.411zm6.932 0h.945v-2.71c0-1.454.497-2.175 1.504-2.175.174 0 .373.037.585.111l.323-.857a1.91 1.91 0 00-.647-.112c-.845 0-1.367.398-1.864 1.342v-1.156h-.846v5.557zm9.307-2.635v-.187c0-1.84-1.045-2.946-2.673-2.946-1.617 0-2.773 1.218-2.773 2.971 0 1.815 1.144 3.033 2.835 3.033 1.144 0 2.014-.51 2.573-1.516l-.72-.485c-.46.808-1.058 1.206-1.803 1.206-1.07 0-1.84-.783-1.84-1.99v-.086h4.4zm-1.02-.771h-3.381c.1-.945.783-1.53 1.69-1.53 1.007 0 1.629.548 1.691 1.53zm9.443-1.529l-1.268-.56c-.808-.348-1.193-.795-1.193-1.43 0-.758.56-1.292 1.355-1.292.634 0 1.119.348 1.504 1.02l.87-.56c-.435-.883-1.23-1.343-2.3-1.343-1.479 0-2.498.945-2.498 2.188 0 1.082.572 1.852 1.753 2.35l1.081.46c.92.398 1.38.982 1.38 1.777 0 .97-.709 1.654-1.778 1.654-.895 0-1.504-.56-1.765-1.641l-.957.472c.335 1.318 1.318 2.064 2.722 2.064 1.716 0 2.847-1.094 2.847-2.722 0-1.12-.584-1.94-1.753-2.437zm7.318 3.617c-.583.423-1.118.635-1.715.635-1.156 0-1.989-.895-1.989-2.014 0-1.318.845-2.139 2.064-2.139.547 0 1.069.174 1.541.485v-1.02a3.961 3.961 0 00-1.728-.385c-1.666 0-2.896 1.219-2.896 3.034 0 1.753 1.13 2.959 2.859 2.959.721 0 1.355-.15 1.865-.448V64.82zm1.321 1.318h.945v-2.872c0-.609 0-1.069.323-1.466.311-.386.796-.597 1.355-.597.995 0 1.48.547 1.48 1.666v3.27h.945v-3.78c0-1.256-.796-1.977-2.089-1.977-.87 0-1.541.336-2.026 1.057v-4.712h-.933v9.411zm10.327-5.756h-.15l-1.69 3.991-1.48-3.792h-1.056l2.474 5.905 1.827-4.264 1.828 4.264 2.474-5.905h-1.07l-1.491 3.792-1.666-3.99zm10.162 3.121v-.187c0-1.84-1.045-2.946-2.673-2.946-1.617 0-2.773 1.218-2.773 2.971 0 1.815 1.144 3.033 2.835 3.033 1.144 0 2.014-.51 2.573-1.516l-.721-.485c-.46.808-1.057 1.206-1.802 1.206-1.07 0-1.84-.783-1.84-1.99v-.086h4.401zm-1.02-.771h-3.381c.099-.945.783-1.53 1.69-1.53 1.007 0 1.629.548 1.691 1.53zm2.495 3.406h.945v-5.557h-.945v5.557zm-.224-8.23c0 .398.311.697.696.697a.684.684 0 00.696-.684.705.705 0 00-.696-.709.695.695 0 00-.696.696zm2.402 8.23h4.836v-.833h-3.158l3.183-4.724h-4.662v.833h2.983l-3.182 4.724zm11.097-2.635v-.187c0-1.84-1.044-2.946-2.672-2.946-1.617 0-2.773 1.218-2.773 2.971 0 1.815 1.144 3.033 2.835 3.033 1.143 0 2.014-.51 2.573-1.516l-.721-.485c-.46.808-1.057 1.206-1.803 1.206-1.069 0-1.84-.783-1.84-1.99v-.086h4.401zm-1.019-.771h-3.382c.1-.945.784-1.53 1.691-1.53 1.007 0 1.629.548 1.691 1.53zm2.457 3.406h.945v-2.71c0-1.454.498-2.175 1.505-2.175a1.8 1.8 0 01.584.111l.323-.857a1.91 1.91 0 00-.646-.112c-.846 0-1.368.398-1.865 1.342v-1.156h-.846v5.557zm10.649.348l3.742-9.237h-1.144l-2.598 6.8-2.611-6.8h-1.144l3.755 9.237zm8.844-2.983v-.187c0-1.84-1.044-2.946-2.673-2.946-1.616 0-2.772 1.218-2.772 2.971 0 1.815 1.143 3.033 2.834 3.033 1.144 0 2.014-.51 2.574-1.516l-.722-.485c-.459.808-1.056 1.206-1.802 1.206-1.069 0-1.84-.783-1.84-1.99v-.086h4.401zm-1.02-.771h-3.381c.099-.945.783-1.53 1.691-1.53 1.007 0 1.628.548 1.69 1.53zm2.458 3.406h.945v-2.71c0-1.454.497-2.175 1.504-2.175.174 0 .373.037.584.111l.324-.857a1.916 1.916 0 00-.647-.112c-.845 0-1.367.398-1.865 1.342v-1.156h-.845v5.557zm3.762-.932c.435.783 1.156 1.168 2.188 1.168 1.23 0 2.026-.733 2.026-1.765 0-.907-.534-1.305-1.616-1.653-.92-.299-1.43-.373-1.43-.958 0-.484.386-.832.945-.832.584 0 1.044.286 1.268.795l.771-.472c-.298-.709-1.019-1.107-1.977-1.107-1.181 0-1.964.709-1.964 1.679 0 1.094.82 1.33 2.188 1.802.584.2.87.423.87.846 0 .484-.41.833-1.044.833-.634 0-1.106-.286-1.417-.883l-.808.547zm5.696.932h.945v-5.557h-.945v5.557zm-.223-8.23c0 .398.31.697.696.697a.685.685 0 00.696-.684.706.706 0 00-.696-.709.694.694 0 00-.696.696zm7.449 6.912c-.585.423-1.119.635-1.716.635-1.156 0-1.989-.895-1.989-2.014 0-1.318.845-2.139 2.064-2.139.547 0 1.069.174 1.541.485v-1.02a3.961 3.961 0 00-1.728-.385c-1.666 0-2.897 1.219-2.897 3.034 0 1.753 1.132 2.959 2.86 2.959.721 0 1.355-.15 1.865-.448V64.82zm1.32 1.318h.945v-2.872c0-.609 0-1.069.323-1.466.311-.386.796-.597 1.355-.597.995 0 1.48.547 1.48 1.666v3.27h.945v-3.78c0-1.256-.796-1.977-2.089-1.977-.87 0-1.542.336-2.026 1.057v-4.712h-.933v9.411zm11.881-2.635v-.187c0-1.84-1.045-2.946-2.673-2.946-1.616 0-2.773 1.218-2.773 2.971 0 1.815 1.144 3.033 2.835 3.033 1.144 0 2.014-.51 2.573-1.516l-.721-.485c-.46.808-1.056 1.206-1.802 1.206-1.069 0-1.84-.783-1.84-1.99v-.086h4.401zm-1.02-.771h-3.381c.099-.945.783-1.53 1.691-1.53 1.007 0 1.628.548 1.69 1.53zm2.458 3.406h.945v-2.71c0-1.454.497-2.175 1.504-2.175.174 0 .373.037.584.111l.323-.857a1.906 1.906 0 00-.646-.112c-.845 0-1.368.398-1.865 1.342v-1.156h-.845v5.557zm5.216-5.557h-.945v3.32c0 1.628.883 2.473 2.499 2.473 1.666 0 2.536-.87 2.536-2.548v-3.245h-.945v2.735c-.025 1.467-.348 2.151-1.566 2.151s-1.579-.684-1.579-2.15V60.58zm5.929 5.557h.944v-2.872c0-.609 0-1.069.324-1.466.31-.386.795-.597 1.355-.597.994 0 1.479.547 1.479 1.666v3.27h.945v-3.78c0-1.256-.796-1.977-2.089-1.977-.87 0-1.541.336-2.014 1.057v-.858h-.944v5.557zm12.116-5.557h-.969v1.032c-.411-.808-1.119-1.23-2.039-1.23-1.554 0-2.611 1.106-2.611 2.958 0 1.803 1.069 2.971 2.66 2.971.858 0 1.579-.435 2.014-1.23v.932c0 .51-.024.92-.236 1.268-.286.485-.833.734-1.591.734-1.069 0-1.654-.485-1.654-1.306v-.074h-1.069c.038 1.392 1.007 2.213 2.711 2.213.982 0 1.728-.286 2.237-.846.522-.547.547-1.168.547-1.964V60.58zm-.945 2.797c0 1.28-.696 2.027-1.815 2.027-1.181 0-1.852-.758-1.852-2.101 0-1.268.671-2.002 1.815-2.002 1.069 0 1.852.784 1.852 2.076z"/></g><defs><clipPath id="clip0"><path fill="#fff" transform="translate(0 .161)" d="M0 0h200v85.859H0z"/></clipPath><clipPath id="clip1"><path fill="#fff" transform="translate(0 .161)" d="M0 0h200v47.475H0z"/></clipPath></defs></svg>
